X: 39
T:Rose Tree, The (Bampton)
M:4/4
L:1/8
O:England; Oxfordshire; Bampton.
B:Lionel Bacon, A Handbook of Morris Dances
Z:http://www.themorrisring.org/music/handbook-morris-dances
P:A(AB3)3A
K:G
P:A
BA|G2(3EFE D2B,2|DEDB, D2B,D|G2G2 BAGA|B2A2 AcBA|
G2  E2  D2B,2|DEDB, D2B,D|G2FG A2GA|B2G2 G2  ||
P:B
GA|(3BcBA2 B2c2 |d2g2  d2cB |A2B2 c2d2|efge dcBA|
G2(3EFE D2B,2|DEDB, D2B,D|G2FG A2GA|B2G2 G2  ||

